X:869
T:Xiraldilla (CT 364)
R:Xiraldilla
C:Tradicional
S:Msica Tradicional Asturiana, (C) Tello & Tito. Asturies, 2001.
S:http://pagina.de/MusTradAst <telloytito@asturies.org>
N:Xiraldilla, transcrita en Bayn, ayuntamiento de Grau.
A:Asturies
O:Bayn (Grau)
Z:Cancioneru de Torner 364
M:3/8
L:1/8
Q:3/8=88
K:C
|A>AA|_BAG|(c2 A-)|A2 z|d>dd|dc_B|(A2 G-)|G2 z|
A>AA|_BAG|c2 A-|AGG|(^F2 E)|DGG|G3-|G2 z||
W:El mi amor ye piquin,
W:pero as lu quiero yo,
W:que el arbol que no crez mucho
W:cra fruta y hoja no.
W:
